Newaita-dark/apps/48/webtorrent-desktop.svg

<svg height="48pt" viewBox="0 0 48 48" width="48pt" xmlns="http://www.w3.org/2000/svg" xmlns:xlink="http://www.w3.org/1999/xlink"><linearGradient id="a"><stop offset="0" stop-opacity=".313725"/><stop offset=".222222" stop-opacity=".27451"/><stop offset="1" stop-opacity="0"/></linearGradient><radialGradient id="b" cx="450.908936" cy="189.579361" gradientTransform="matrix(.00000026 -.117199 -.210958 -.00000015 63.311739 95.392999)" gradientUnits="userSpaceOnUse" r="21.166656" xlink:href="#a"/><radialGradient id="c" cx="450.908936" cy="189.579361" gradientTransform="matrix(-.00000026 .117199 .210958 .00000015 -15.682186 -11.291218)" gradientUnits="userSpaceOnUse" r="21.166656" xlink:href="#a"/><radialGradient id="d" cx="450.908936" cy="189.579361" gradientTransform="matrix(-.00000026 -.117199 .210958 -.00000015 -15.682186 95.392999)" gradientUnits="userSpaceOnUse" r="21.166656" xlink:href="#a"/><radialGradient id="e" cx="450.908936" cy="189.579361" gradientTransform="matrix(.00000026 .117199 -.210958 .00000015 63.311736 -11.291219)" gradientUnits="userSpaceOnUse" r="21.166656" xlink:href="#a"/><linearGradient id="f" gradientUnits="userSpaceOnUse" x1="25.7993504999" x2="25.7993504999" y1="42.0509015" y2="4.3441580001"><stop offset="0" stop-color="#424242"/><stop offset="1" stop-color="#616161"/></linearGradient><linearGradient id="g"><stop offset="0" stop-color="#ef5350"/><stop offset="1" stop-color="#e57373"/></linearGradient><linearGradient id="h" gradientUnits="userSpaceOnUse" x1="23.814786" x2="23.814786" xlink:href="#g" y1="42.0509015" y2="4.3441580001"/><linearGradient id="i" gradientUnits="userSpaceOnUse" x1="23.814786" x2="23.814786" xlink:href="#g" y1="42.0509005" y2="4.3441570001"/><path d="m23.816406 42.050781h3.96875v-1.984375h-3.96875zm0 0" fill="url(#b)"/><path d="m23.816406 42.050781h-3.972656v1.984375h3.972656zm0 0" fill="url(#c)"/><path d="m23.816406 42.050781h-3.972656v-1.984375h3.972656zm0 0" fill="url(#d)"/><path d="m23.816406 42.050781h3.96875v1.984375h-3.96875zm0 0" fill="url(#e)"/><path d="m23.851562 4.34375c-.273437-.007812-.546874.0625-.785156.203125l-15.378906 8.929687c-.460938.265626-.742188.757813-.742188 1.285157v16.871093c0 .53125.28125 1.019532.742188 1.285157l15.378906 8.933593c.464844.265626 1.035156.265626 1.496094 0l15.378906-8.933593c.460938-.265625.742188-.753907.742188-1.285157v-16.871093c0-.527344-.28125-1.019531-.742188-1.285157l-15.378906-8.929687c-.214844-.125-.460938-.195313-.710938-.203125zm0 0" fill="url(#f)"/><path d="m23.851562 4.34375c-.273437-.007812-.546874.0625-.785156.203125l-15.378906 8.929687c-.460938.265626-.742188.757813-.742188 1.285157v16.871093c0 .53125.28125 1.019532.742188 1.285157l15.378906 8.933593c.464844.265626 1.035156.265626 1.496094 0l15.378906-8.933593c.460938-.265625.742188-.753907.742188-1.285157v-16.871093c0-.527344-.28125-1.019531-.742188-1.285157l-15.378906-8.929687c-.214844-.125-.460938-.195313-.710938-.203125zm-.035156 3.210938 13.890625 8.066406v15.152344l-13.890625 8.066406-13.894531-8.066406v-15.152344zm0 0" fill="url(#h)"/><path d="m20.335938 17.074219c-1.972657-.019531-3.863282 1.414062-4.320313 3.351562-.179687.734375-.167969 1.484375-.070313 2.195313.4375 1.660156 1.621094 2.984375 2.753907 4.21875 1.539062 1.5625 3.199219 3.046875 5.117187 4.132812 1.914063-1.085937 3.578125-2.570312 5.113282-4.132812 1.136718-1.234375 2.316406-2.558594 2.757812-4.21875.097656-.710938.109375-1.460938-.074219-2.195313-.457031-1.9375-2.347656-3.371093-4.320312-3.351562-.132813 0-.265625.007812-.394531.023437-1.195313.09375-2.335938.699219-3.082032 1.632813-.75-.933594-1.890625-1.539063-3.082031-1.632813-.132813-.015625-.265625-.023437-.398437-.023437zm0 0" fill="url(#i)"/><path d="m20.335938 17.074219c-1.972657-.019531-3.863282 1.414062-4.320313 3.351562-.121094.492188-.15625.988281-.136719 1.480469.015625-.328125.058594-.65625.136719-.984375.457031-1.9375 2.347656-3.371094 4.320313-3.351563.132812 0 .265624.007813.398437.023438 1.191406.09375 2.332031.699219 3.082031 1.632812.746094-.933593 1.886719-1.539062 3.082032-1.632812.128906-.015625.261718-.023438.394531-.023438 1.972656-.019531 3.863281 1.414063 4.320312 3.351563.082031.328125.121094.65625.136719.984375.019531-.492188-.015625-.988281-.136719-1.480469-.457031-1.9375-2.347656-3.371093-4.320312-3.351562-.132813 0-.265625.007812-.394531.023437-1.195313.09375-2.335938.699219-3.082032 1.632813-.75-.933594-1.890625-1.539063-3.082031-1.632813-.132813-.015625-.265625-.023437-.398437-.023437zm0 0" fill="#fff" fill-opacity=".392157"/><path d="m15.882812 21.371094c-.023437.421875.003907.84375.0625 1.25.4375 1.660156 1.621094 2.984375 2.753907 4.21875 1.539062 1.5625 3.199219 3.046875 5.117187 4.132812 1.914063-1.085937 3.578125-2.570312 5.113282-4.132812 1.136718-1.234375 2.316406-2.558594 2.757812-4.21875.054688-.40625.082031-.828125.0625-1.25-.011719.226562-.035156.449218-.0625.667968-.441406 1.660157-1.621094 2.984376-2.757812 4.21875-1.535157 1.566407-3.199219 3.046876-5.113282 4.132813-1.917968-1.085937-3.578125-2.566406-5.117187-4.132813-1.132813-1.234374-2.316407-2.558593-2.753907-4.21875-.03125-.21875-.054687-.441406-.0625-.667968zm0 0" fill-opacity=".235294"/><path d="m20.339844 16.933594c-2.042969-.019532-3.988282 1.453125-4.460938 3.460937-.1875.753907-.171875 1.523438-.074218 2.246094 0 .003906 0 .011719.003906.015625.449218 1.703125 1.652344 3.042969 2.789062 4.277344 1.542969 1.570312 3.214844 3.066406 5.148438 4.160156.042968.023438.09375.023438.136718 0 1.933594-1.09375 3.605469-2.589844 5.148438-4.15625 1.136719-1.238281 2.339844-2.578125 2.789062-4.28125.003907-.003906.003907-.011719.003907-.015625.101562-.722656.113281-1.492187-.074219-2.246094-.472656-2.007812-2.417969-3.480469-4.460938-3.460937-.132812 0-.269531.007812-.40625.023437-1.175781.09375-2.296874.671875-3.066406 1.5625-.773437-.890625-1.894531-1.46875-3.070312-1.5625-.136719-.015625-.273438-.023437-.40625-.023437zm-.003906.28125c.128906 0 .253906.007812.382812.019531 1.15625.09375 2.261719.683594 2.988281 1.585937.023438.03125.066407.050782.109375.050782.042969 0 .082032-.019532.109375-.050782.722657-.902343 1.828125-1.492187 2.980469-1.582031.132812-.015625.261719-.023437.386719-.023437 1.90625-.019532 3.742187 1.375 4.183593 3.242187.175782.710938.164063 1.4375.070313 2.136719-.429687 1.609375-1.585937 2.917969-2.71875 4.148438-1.515625 1.539062-3.144531 2.992187-5.011719 4.066406-1.867187-1.074219-3.5-2.527344-5.015625-4.066406-1.128906-1.230469-2.289062-2.539063-2.71875-4.148438-.09375-.699219-.105469-1.425781.070313-2.132812.441406-1.871094 2.28125-3.265626 4.183594-3.246094zm0 0" fill="#212121"/><path d="m23.851562 4.34375c-.273437-.007812-.546874.0625-.785156.203125l-15.378906 8.929687c-.460938.265626-.742188.757813-.742188 1.285157v.496093c0-.53125.28125-1.019531.742188-1.285156l15.378906-8.929687c.238282-.140625.511719-.210938.785156-.203125.25.007812.496094.074218.710938.203125l15.378906 8.929687c.460938.265625.742188.753906.742188 1.285156v-.496093c0-.527344-.28125-1.019531-.742188-1.285157l-15.378906-8.929687c-.214844-.125-.460938-.195313-.710938-.203125zm-13.929687 26.429688v.496093l13.894531 8.066407 13.890625-8.066407v-.496093l-13.890625 8.066406zm0 0" fill="#fff" fill-opacity=".392157"/><path d="m23.851562 42.050781c-.273437.007813-.546874-.0625-.785156-.199219l-15.378906-8.933593c-.460938-.265625-.742188-.753907-.742188-1.285157v-.496093c0 .53125.28125 1.019531.742188 1.289062l15.378906 8.929688c.238282.136719.511719.207031.785156.199219.25-.003907.496094-.074219.710938-.199219l15.378906-8.929688c.460938-.269531.742188-.757812.742188-1.289062v.496093c0 .53125-.28125 1.019532-.742188 1.285157l-15.378906 8.933593c-.214844.125-.460938.191407-.710938.199219zm-13.929687-26.429687v-.496094l13.894531-8.066406 13.890625 8.066406v.496094l-13.890625-8.066406zm0 0" fill-opacity=".235294"/><path d="m23.855469 4.203125c-.300781-.007813-.597657.070313-.859375.222656l-15.378906 8.929688c-.503907.289062-.8125.828125-.8125 1.40625v16.871093c0 .578126.308593 1.117188.8125 1.40625l15.378906 8.933594c.507812.292969 1.132812.292969 1.636718 0l15.378907-8.933594c.503906-.289062.8125-.828124.8125-1.40625v-16.871093c0-.578125-.308594-1.117188-.8125-1.40625l-15.378907-8.929688c-.234374-.140625-.503906-.214843-.777343-.222656zm-.003907.28125c.222657.007813.445313.070313.640626.183594l15.378906 8.929687c.417968.242188.671875.683594.671875 1.164063v16.871093c0 .480469-.253907.921876-.671875 1.164063l-15.378906 8.929687c-.417969.246094-.933594.246094-1.355469 0l-15.378907-8.929687c-.414062-.242187-.671874-.683594-.671874-1.164063v-16.871093c0-.480469.257812-.921875.671874-1.164063l15.378907-8.929687c.21875-.125.464843-.1875.714843-.183594zm-.03125 2.929687c-.027343 0-.054687.003907-.078124.019532l-13.890626 8.066406c-.042968.023438-.070312.070312-.070312.121094v15.152344c0 .050781.027344.097656.070312.125l13.890626 8.0625c.046874.027343.097656.027343.144531 0l13.890625-8.0625c.042968-.027344.070312-.074219.070312-.125v-15.152344c0-.050782-.027344-.097656-.070312-.121094l-13.890625-8.066406c-.023438-.011719-.042969-.019532-.066407-.019532zm-.003906.300782 13.75 7.984375v14.996093l-13.75 7.984376-13.753906-7.984376v-14.996093zm0 0" fill="#212121"/><path d="m17.675781 19.378906.007813-.007812c.773437-.773438 1.769531-1.03125 2.226562-.574219l.101563.097656c.457031.460938.199219 1.457031-.574219 2.230469l-.007812.007812c-.773438.773438-1.769532 1.027344-2.226563.570313l-.097656-.097656c-.457031-.457031-.203125-1.453125.570312-2.226563zm0 0" fill="#fff" fill-opacity=".235294"/></svg>

<?xml version="1.0" encoding="UTF-8"?>
<svg xmlns="http://www.w3.org/2000/svg" xmlns:xlink="http://www.w3.org/1999/xlink" width="48pt" height="48pt" viewBox="0 0 48 48" version="1.1">
<defs>
<radialGradient id="radial0" gradientUnits="userSpaceOnUse" cx="450.908936" cy="189.579361" fx="450.908936" fy="189.579361" r="21.166656" gradientTransform="matrix(0.000000261256,-0.117199,-0.210958,-0.000000152308,63.311739,95.392999)">
<stop offset="0" style="stop-color:rgb(0%,0%,0%);stop-opacity:0.313725;"/>
<stop offset="0.222222" style="stop-color:rgb(0%,0%,0%);stop-opacity:0.27451;"/>
<stop offset="1" style="stop-color:rgb(0%,0%,0%);stop-opacity:0;"/>
</radialGradient>
<radialGradient id="radial1" gradientUnits="userSpaceOnUse" cx="450.908936" cy="189.579361" fx="450.908936" fy="189.579361" r="21.166656" gradientTransform="matrix(-0.000000261256,0.117199,0.210958,0.000000152308,-15.682186,-11.291218)">
<stop offset="0" style="stop-color:rgb(0%,0%,0%);stop-opacity:0.313725;"/>
<stop offset="0.222222" style="stop-color:rgb(0%,0%,0%);stop-opacity:0.27451;"/>
<stop offset="1" style="stop-color:rgb(0%,0%,0%);stop-opacity:0;"/>
</radialGradient>
<radialGradient id="radial2" gradientUnits="userSpaceOnUse" cx="450.908936" cy="189.579361" fx="450.908936" fy="189.579361" r="21.166656" gradientTransform="matrix(-0.000000261256,-0.117199,0.210958,-0.000000152308,-15.682186,95.392999)">
<stop offset="0" style="stop-color:rgb(0%,0%,0%);stop-opacity:0.313725;"/>
<stop offset="0.222222" style="stop-color:rgb(0%,0%,0%);stop-opacity:0.27451;"/>
<stop offset="1" style="stop-color:rgb(0%,0%,0%);stop-opacity:0;"/>
</radialGradient>
<radialGradient id="radial3" gradientUnits="userSpaceOnUse" cx="450.908936" cy="189.579361" fx="450.908936" fy="189.579361" r="21.166656" gradientTransform="matrix(0.000000261256,0.117199,-0.210958,0.000000152308,63.311736,-11.291219)">
<stop offset="0" style="stop-color:rgb(0%,0%,0%);stop-opacity:0.313725;"/>
<stop offset="0.222222" style="stop-color:rgb(0%,0%,0%);stop-opacity:0.27451;"/>
<stop offset="1" style="stop-color:rgb(0%,0%,0%);stop-opacity:0;"/>
</radialGradient>
<linearGradient id="linear0" gradientUnits="userSpaceOnUse" x1="275.166656" y1="233.5" x2="275.166656" y2="-168.666656" gradientTransform="matrix(0.093759,0,0,0.093759,0,20.158175)">
<stop offset="0" style="stop-color:rgb(25.882353%,25.882353%,25.882353%);stop-opacity:1;"/>
<stop offset="1" style="stop-color:rgb(38.039216%,38.039216%,38.039216%);stop-opacity:1;"/>
</linearGradient>
<linearGradient id="linear1" gradientUnits="userSpaceOnUse" x1="254" y1="233.5" x2="254" y2="-168.666656" gradientTransform="matrix(0.093759,0,0,0.093759,0,20.158175)">
<stop offset="0" style="stop-color:rgb(93.72549%,32.54902%,31.372549%);stop-opacity:1;"/>
<stop offset="1" style="stop-color:rgb(89.803922%,45.098039%,45.098039%);stop-opacity:1;"/>
</linearGradient>
<linearGradient id="linear2" gradientUnits="userSpaceOnUse" x1="254" y1="233.5" x2="254" y2="-168.666656" gradientTransform="matrix(0.093759,0,0,0.093759,0,20.158174)">
<stop offset="0" style="stop-color:rgb(93.72549%,32.54902%,31.372549%);stop-opacity:1;"/>
<stop offset="1" style="stop-color:rgb(89.803922%,45.098039%,45.098039%);stop-opacity:1;"/>
</linearGradient>
</defs>
<g id="surface1">
<path style=" stroke:none;fill-rule:nonzero;fill:url(#radial0);" d="M 23.816406 42.050781 L 27.785156 42.050781 L 27.785156 40.066406 L 23.816406 40.066406 Z M 23.816406 42.050781 "/>
<path style=" stroke:none;fill-rule:nonzero;fill:url(#radial1);" d="M 23.816406 42.050781 L 19.84375 42.050781 L 19.84375 44.035156 L 23.816406 44.035156 Z M 23.816406 42.050781 "/>
<path style=" stroke:none;fill-rule:nonzero;fill:url(#radial2);" d="M 23.816406 42.050781 L 19.84375 42.050781 L 19.84375 40.066406 L 23.816406 40.066406 Z M 23.816406 42.050781 "/>
<path style=" stroke:none;fill-rule:nonzero;fill:url(#radial3);" d="M 23.816406 42.050781 L 27.785156 42.050781 L 27.785156 44.035156 L 23.816406 44.035156 Z M 23.816406 42.050781 "/>
<path style=" stroke:none;fill-rule:nonzero;fill:url(#linear0);" d="M 23.851562 4.34375 C 23.578125 4.335938 23.304688 4.40625 23.066406 4.546875 L 7.6875 13.476562 C 7.226562 13.742188 6.945312 14.234375 6.945312 14.761719 L 6.945312 31.632812 C 6.945312 32.164062 7.226562 32.652344 7.6875 32.917969 L 23.066406 41.851562 C 23.53125 42.117188 24.101562 42.117188 24.5625 41.851562 L 39.941406 32.917969 C 40.402344 32.652344 40.683594 32.164062 40.683594 31.632812 L 40.683594 14.761719 C 40.683594 14.234375 40.402344 13.742188 39.941406 13.476562 L 24.5625 4.546875 C 24.347656 4.421875 24.101562 4.351562 23.851562 4.34375 Z M 23.851562 4.34375 "/>
<path style=" stroke:none;fill-rule:nonzero;fill:url(#linear1);" d="M 23.851562 4.34375 C 23.578125 4.335938 23.304688 4.40625 23.066406 4.546875 L 7.6875 13.476562 C 7.226562 13.742188 6.945312 14.234375 6.945312 14.761719 L 6.945312 31.632812 C 6.945312 32.164062 7.226562 32.652344 7.6875 32.917969 L 23.066406 41.851562 C 23.53125 42.117188 24.101562 42.117188 24.5625 41.851562 L 39.941406 32.917969 C 40.402344 32.652344 40.683594 32.164062 40.683594 31.632812 L 40.683594 14.761719 C 40.683594 14.234375 40.402344 13.742188 39.941406 13.476562 L 24.5625 4.546875 C 24.347656 4.421875 24.101562 4.351562 23.851562 4.34375 Z M 23.816406 7.554688 L 37.707031 15.621094 L 37.707031 30.773438 L 23.816406 38.839844 L 9.921875 30.773438 L 9.921875 15.621094 Z M 23.816406 7.554688 "/>
<path style=" stroke:none;fill-rule:nonzero;fill:url(#linear2);" d="M 20.335938 17.074219 C 18.363281 17.054688 16.472656 18.488281 16.015625 20.425781 C 15.835938 21.160156 15.847656 21.910156 15.945312 22.621094 C 16.382812 24.28125 17.566406 25.605469 18.699219 26.839844 C 20.238281 28.402344 21.898438 29.886719 23.816406 30.972656 C 25.730469 29.886719 27.394531 28.402344 28.929688 26.839844 C 30.066406 25.605469 31.246094 24.28125 31.6875 22.621094 C 31.785156 21.910156 31.796875 21.160156 31.613281 20.425781 C 31.15625 18.488281 29.265625 17.054688 27.292969 17.074219 C 27.160156 17.074219 27.027344 17.082031 26.898438 17.097656 C 25.703125 17.191406 24.5625 17.796875 23.816406 18.730469 C 23.066406 17.796875 21.925781 17.191406 20.734375 17.097656 C 20.601562 17.082031 20.46875 17.074219 20.335938 17.074219 Z M 20.335938 17.074219 "/>
<path style=" stroke:none;fill-rule:nonzero;fill:rgb(100%,100%,100%);fill-opacity:0.392157;" d="M 20.335938 17.074219 C 18.363281 17.054688 16.472656 18.488281 16.015625 20.425781 C 15.894531 20.917969 15.859375 21.414062 15.878906 21.90625 C 15.894531 21.578125 15.9375 21.25 16.015625 20.921875 C 16.472656 18.984375 18.363281 17.550781 20.335938 17.570312 C 20.46875 17.570312 20.601562 17.578125 20.734375 17.59375 C 21.925781 17.6875 23.066406 18.292969 23.816406 19.226562 C 24.5625 18.292969 25.703125 17.6875 26.898438 17.59375 C 27.027344 17.578125 27.160156 17.570312 27.292969 17.570312 C 29.265625 17.550781 31.15625 18.984375 31.613281 20.921875 C 31.695312 21.25 31.734375 21.578125 31.75 21.90625 C 31.769531 21.414062 31.734375 20.917969 31.613281 20.425781 C 31.15625 18.488281 29.265625 17.054688 27.292969 17.074219 C 27.160156 17.074219 27.027344 17.082031 26.898438 17.097656 C 25.703125 17.191406 24.5625 17.796875 23.816406 18.730469 C 23.066406 17.796875 21.925781 17.191406 20.734375 17.097656 C 20.601562 17.082031 20.46875 17.074219 20.335938 17.074219 Z M 20.335938 17.074219 "/>
<path style=" stroke:none;fill-rule:nonzero;fill:rgb(0%,0%,0%);fill-opacity:0.235294;" d="M 15.882812 21.371094 C 15.859375 21.792969 15.886719 22.214844 15.945312 22.621094 C 16.382812 24.28125 17.566406 25.605469 18.699219 26.839844 C 20.238281 28.402344 21.898438 29.886719 23.816406 30.972656 C 25.730469 29.886719 27.394531 28.402344 28.929688 26.839844 C 30.066406 25.605469 31.246094 24.28125 31.6875 22.621094 C 31.742188 22.214844 31.769531 21.792969 31.75 21.371094 C 31.738281 21.597656 31.714844 21.820312 31.6875 22.039062 C 31.246094 23.699219 30.066406 25.023438 28.929688 26.257812 C 27.394531 27.824219 25.730469 29.304688 23.816406 30.390625 C 21.898438 29.304688 20.238281 27.824219 18.699219 26.257812 C 17.566406 25.023438 16.382812 23.699219 15.945312 22.039062 C 15.914062 21.820312 15.890625 21.597656 15.882812 21.371094 Z M 15.882812 21.371094 "/>
<path style=" stroke:none;fill-rule:nonzero;fill:rgb(12.941177%,12.941177%,12.941177%);fill-opacity:1;" d="M 20.339844 16.933594 C 18.296875 16.914062 16.351562 18.386719 15.878906 20.394531 C 15.691406 21.148438 15.707031 21.917969 15.804688 22.640625 C 15.804688 22.644531 15.804688 22.652344 15.808594 22.65625 C 16.257812 24.359375 17.460938 25.699219 18.597656 26.933594 C 20.140625 28.503906 21.8125 30 23.746094 31.09375 C 23.789062 31.117188 23.839844 31.117188 23.882812 31.09375 C 25.816406 30 27.488281 28.503906 29.03125 26.9375 C 30.167969 25.699219 31.371094 24.359375 31.820312 22.65625 C 31.824219 22.652344 31.824219 22.644531 31.824219 22.640625 C 31.925781 21.917969 31.9375 21.148438 31.75 20.394531 C 31.277344 18.386719 29.332031 16.914062 27.289062 16.933594 C 27.15625 16.933594 27.019531 16.941406 26.882812 16.957031 C 25.707031 17.050781 24.585938 17.628906 23.816406 18.519531 C 23.042969 17.628906 21.921875 17.050781 20.746094 16.957031 C 20.609375 16.941406 20.472656 16.933594 20.339844 16.933594 Z M 20.335938 17.214844 C 20.464844 17.214844 20.589844 17.222656 20.71875 17.234375 C 21.875 17.328125 22.980469 17.917969 23.707031 18.820312 C 23.730469 18.851562 23.773438 18.871094 23.816406 18.871094 C 23.859375 18.871094 23.898438 18.851562 23.925781 18.820312 C 24.648438 17.917969 25.753906 17.328125 26.90625 17.238281 C 27.039062 17.222656 27.167969 17.214844 27.292969 17.214844 C 29.199219 17.195312 31.035156 18.589844 31.476562 20.457031 C 31.652344 21.167969 31.640625 21.894531 31.546875 22.59375 C 31.117188 24.203125 29.960938 25.511719 28.828125 26.742188 C 27.3125 28.28125 25.683594 29.734375 23.816406 30.808594 C 21.949219 29.734375 20.316406 28.28125 18.800781 26.742188 C 17.671875 25.511719 16.511719 24.203125 16.082031 22.59375 C 15.988281 21.894531 15.976562 21.167969 16.152344 20.460938 C 16.59375 18.589844 18.433594 17.195312 20.335938 17.214844 Z M 20.335938 17.214844 "/>
<path style=" stroke:none;fill-rule:nonzero;fill:rgb(100%,100%,100%);fill-opacity:0.392157;" d="M 23.851562 4.34375 C 23.578125 4.335938 23.304688 4.40625 23.066406 4.546875 L 7.6875 13.476562 C 7.226562 13.742188 6.945312 14.234375 6.945312 14.761719 L 6.945312 15.257812 C 6.945312 14.726562 7.226562 14.238281 7.6875 13.972656 L 23.066406 5.042969 C 23.304688 4.902344 23.578125 4.832031 23.851562 4.839844 C 24.101562 4.847656 24.347656 4.914062 24.5625 5.042969 L 39.941406 13.972656 C 40.402344 14.238281 40.683594 14.726562 40.683594 15.257812 L 40.683594 14.761719 C 40.683594 14.234375 40.402344 13.742188 39.941406 13.476562 L 24.5625 4.546875 C 24.347656 4.421875 24.101562 4.351562 23.851562 4.34375 Z M 9.921875 30.773438 L 9.921875 31.269531 L 23.816406 39.335938 L 37.707031 31.269531 L 37.707031 30.773438 L 23.816406 38.839844 Z M 9.921875 30.773438 "/>
<path style=" stroke:none;fill-rule:nonzero;fill:rgb(0%,0%,0%);fill-opacity:0.235294;" d="M 23.851562 42.050781 C 23.578125 42.058594 23.304688 41.988281 23.066406 41.851562 L 7.6875 32.917969 C 7.226562 32.652344 6.945312 32.164062 6.945312 31.632812 L 6.945312 31.136719 C 6.945312 31.667969 7.226562 32.15625 7.6875 32.425781 L 23.066406 41.355469 C 23.304688 41.492188 23.578125 41.5625 23.851562 41.554688 C 24.101562 41.550781 24.347656 41.480469 24.5625 41.355469 L 39.941406 32.425781 C 40.402344 32.15625 40.683594 31.667969 40.683594 31.136719 L 40.683594 31.632812 C 40.683594 32.164062 40.402344 32.652344 39.941406 32.917969 L 24.5625 41.851562 C 24.347656 41.976562 24.101562 42.042969 23.851562 42.050781 Z M 9.921875 15.621094 L 9.921875 15.125 L 23.816406 7.058594 L 37.707031 15.125 L 37.707031 15.621094 L 23.816406 7.554688 Z M 9.921875 15.621094 "/>
<path style=" stroke:none;fill-rule:nonzero;fill:rgb(12.941177%,12.941177%,12.941177%);fill-opacity:1;" d="M 23.855469 4.203125 C 23.554688 4.195312 23.257812 4.273438 22.996094 4.425781 L 7.617188 13.355469 C 7.113281 13.644531 6.804688 14.183594 6.804688 14.761719 L 6.804688 31.632812 C 6.804688 32.210938 7.113281 32.75 7.617188 33.039062 L 22.996094 41.972656 C 23.503906 42.265625 24.128906 42.265625 24.632812 41.972656 L 40.011719 33.039062 C 40.515625 32.75 40.824219 32.210938 40.824219 31.632812 L 40.824219 14.761719 C 40.824219 14.183594 40.515625 13.644531 40.011719 13.355469 L 24.632812 4.425781 C 24.398438 4.285156 24.128906 4.210938 23.855469 4.203125 Z M 23.851562 4.484375 C 24.074219 4.492188 24.296875 4.554688 24.492188 4.667969 L 39.871094 13.597656 C 40.289062 13.839844 40.542969 14.28125 40.542969 14.761719 L 40.542969 31.632812 C 40.542969 32.113281 40.289062 32.554688 39.871094 32.796875 L 24.492188 41.726562 C 24.074219 41.972656 23.558594 41.972656 23.136719 41.726562 L 7.757812 32.796875 C 7.34375 32.554688 7.085938 32.113281 7.085938 31.632812 L 7.085938 14.761719 C 7.085938 14.28125 7.34375 13.839844 7.757812 13.597656 L 23.136719 4.667969 C 23.355469 4.542969 23.601562 4.480469 23.851562 4.484375 Z M 23.820312 7.414062 C 23.792969 7.414062 23.765625 7.417969 23.742188 7.433594 L 9.851562 15.5 C 9.808594 15.523438 9.78125 15.570312 9.78125 15.621094 L 9.78125 30.773438 C 9.78125 30.824219 9.808594 30.871094 9.851562 30.898438 L 23.742188 38.960938 C 23.789062 38.988281 23.839844 38.988281 23.886719 38.960938 L 37.777344 30.898438 C 37.820312 30.871094 37.847656 30.824219 37.847656 30.773438 L 37.847656 15.621094 C 37.847656 15.570312 37.820312 15.523438 37.777344 15.5 L 23.886719 7.433594 C 23.863281 7.421875 23.84375 7.414062 23.820312 7.414062 Z M 23.816406 7.714844 L 37.566406 15.699219 L 37.566406 30.695312 L 23.816406 38.679688 L 10.0625 30.695312 L 10.0625 15.699219 Z M 23.816406 7.714844 "/>
<path style=" stroke:none;fill-rule:nonzero;fill:rgb(100%,100%,100%);fill-opacity:0.235294;" d="M 17.675781 19.378906 L 17.683594 19.371094 C 18.457031 18.597656 19.453125 18.339844 19.910156 18.796875 L 20.011719 18.894531 C 20.46875 19.355469 20.210938 20.351562 19.4375 21.125 L 19.429688 21.132812 C 18.65625 21.90625 17.660156 22.160156 17.203125 21.703125 L 17.105469 21.605469 C 16.648438 21.148438 16.902344 20.152344 17.675781 19.378906 Z M 17.675781 19.378906 "/>
</g>
</svg>
